src/assets/icons/stroke/orderedList.svg

<svg xmlns="http://www.w3.org/2000/svg" width="1em" height="1em" fill="none"><path fill="currentColor" d="M2.5 16h2v.5h-1v1h1v.5h-2v1h3v-4h-3v1Zm1-7h1V5h-2v1h1v3Zm-1 2h1.8l-1.8 2.1v.9h3v-1H3.7l1.8-2.1V10h-3v1Zm5-5v2h14V6h-14Zm0 12h14v-2h-14v2Zm0-5h14v-2h-14v2Z"/></svg>

<svg width="1em" height="1em" viewBox="0 0 24 24" fill="none" xmlns="http://www.w3.org/2000/svg">
<path d="M2.5 16H4.5V16.5H3.5V17.5H4.5V18H2.5V19H5.5V15H2.5V16ZM3.5 9H4.5V5H2.5V6H3.5V9ZM2.5 11H4.3L2.5 13.1V14H5.5V13H3.7L5.5 10.9V10H2.5V11ZM7.5 6V8H21.5V6H7.5ZM7.5 18H21.5V16H7.5V18ZM7.5 13H21.5V11H7.5V13Z" fill="currentColor"/>
</svg>
